X:1855
T:Bourrée
C:MCTB 1/39
M:3/8
L:1/8
K:C
e>de/f/|g3|f/g/ag|edc|\
e>de/f/|g3|a/g/fe|d3:|
|:e>de/f/|ec2|d/e/dc|B/c/dd|\
e>de/f/|ec2|d/e/dB|c3:|


